packages/components/src/components/icon/mt5/ic-mt5-password-updated.svg

<svg xmlns="http://www.w3.org/2000/svg" width="128" height="128"><g fill="none" transform="translate(40 4)"><circle cx="24.25" cy="50.28" r="24.18" fill="#C7E5E5"/><circle cx="24.25" cy="40.46" r="5.05" fill="#FFF"/><path fill="#C7E5E5" d="M12.73 71.55v8.96h5.32v6.97l-4.83 1.88v2.03l1.8 1.97v1.72l-1.29 1.29v2.78l4.32 2.75v8.56l6.37 6.38 7.23-7.24V73.31z"/><path fill="#E0F4F3" d="M25.44 80.03h2.61v28.58h-2.61z"/><path fill="#BCCDCE" d="M20.39 0A20.38 20.38 0 000 20.38a20.078 20.078 0 005.82 14.25 30.907 30.907 0 012.45-2.46 16.194 16.194 0 01-4.76-11.75 16.88 16.88 0 1116.83 16.83 4.78 4.78 0 00-1.15 3.45c.4 0 .79.07 1.2.07 11.083-.245 19.939-9.3 19.939-20.385S31.473.245 20.39 0z"/><g transform="translate(22 76)"><ellipse cx="23.01" cy="23" fill="#84ABAE" rx="23.01" ry="23"/><path fill="#FFF" d="M21.4 30.38c-.247 0-.487-.085-.68-.24l-6.06-5a1.09 1.09 0 01-.15-1.51 1.072 1.072 0 011.51-.15l5.23 4.28 9.45-11.61a1.07 1.07 0 111.66 1.35L22.24 30a1.08 1.08 0 01-.73.39l-.11-.01z"/></g></g></svg>

<svg xmlns="http://www.w3.org/2000/svg" width="128" height="128" viewBox="0 0 128 128">
    <g fill="none" transform="translate(40 4)">
        <circle cx="24.25" cy="50.28" r="24.18" fill="#C7E5E5"/>
        <circle cx="24.25" cy="40.46" r="5.05" fill="#FFF"/>
        <path fill="#C7E5E5" d="M12.73 71.55L12.73 80.51 18.05 80.51 18.05 87.48 13.22 89.36 13.22 91.39 15.02 93.36 15.02 95.08 13.73 96.37 13.73 99.15 18.05 101.9 18.05 110.46 24.42 116.84 31.65 109.6 31.65 73.31z"/>
        <path fill="#E0F4F3" d="M25.44 80.03H28.05V108.61H25.44z"/>
        <path fill="#BCCDCE" d="M20.39 0C14.983-.003 9.797 2.143 5.973 5.966 2.149 9.788 0 14.973 0 20.38c-.03 5.335 2.064 10.462 5.82 14.25.77-.865 1.588-1.687 2.45-2.46-3.118-3.107-4.836-7.35-4.76-11.75-.02-6.836 4.085-13.01 10.397-15.635 6.313-2.626 13.585-1.185 18.42 3.65 4.833 4.833 6.274 12.106 3.649 18.418-2.626 6.312-8.8 10.417-15.636 10.397-.823.954-1.236 2.193-1.15 3.45.4 0 .79.07 1.2.07 11.083-.245 19.939-9.3 19.939-20.385S31.473.245 20.39 0z"/>
        <g transform="translate(22 76)">
            <ellipse cx="23.01" cy="23" fill="#84ABAE" rx="23.01" ry="23"/>
            <path fill="#FFF" d="M21.4 30.38c-.247 0-.487-.085-.68-.24l-6.06-5c-.45-.38-.516-1.049-.15-1.51.18-.22.44-.36.724-.389.283-.028.566.058.786.239l5.23 4.28 9.45-11.61c.239-.305.623-.457 1.005-.398.383.06.704.32.84.683.135.362.064.77-.185 1.065L22.24 30c-.182.222-.445.362-.73.39l-.11-.01z"/>
        </g>
    </g>
</svg>
